X: 124
T: Song of the White Horse Riders (b)
C: Teton Sioux band 1911-1914
N: Derived from sioux124.krn
O: South Dakota, U.S.A.
N: Teton Sioux Music by Frances Densmore, 1918
Z: transcribed to **kern format by Craig Sapp
L: 1/8
M: 3/4
Q: 1/4=58
K: Eb clef=bass
%%linebreak <none>
F2_G F/ F/E2 [I:setbarnb 2]| 
E4B, B, ||  
[M:2/4]E> E E3/ E/ ||  
[M:3/4]F2_G F/ F/E2 ||  
[M:2/4]E4 ||  
[M:3/4]B,2B, G, F, G,/ F,/ ||  
[M:2/4]E,2E, E, | 
E,4- | 
E,2B,,2 | 
E,> E,E,2 ||  
[M:3/4]G,2G, F,/ F,/E,2 ||  
[M:2/4]B,,4 | 
B,,4 ||  
[M:3/4]B,,4 ]|:  
B,2 ||  
[M:2/4]E> E E3/ E/ [I:setbarnb 15]||  
[M:3/4]F2_G F/ F/E2 ||  
[M:2/4]E4 ||  
[M:3/4]B,2B, _G, F, G,/ F,/ ||  
[M:2/4]E,2E, E, | 
E,4- | 
E,2B,,2 | 
E,> E, E,3/ E,/ ||  
[M:3/4]G,2G, F,/ F,/E,2 ||  
[M:2/4]B,,3B,, | 
B,,4- ||  
[M:3/4]B,,4 :|]  



